icons/building-line.svg

<svg xmlns="http://www.w3.org/2000/svg" width="24" height="24" fill="none"><g clip-path="url(#a)"><g><path fill="#121212" d="M21 19H23V21H1V19H3V4C3 3.73478 3.10536 3.48043 3.29289 3.29289C3.48043 3.10536 3.73478 3 4 3H14C14.2652 3 14.5196 3.10536 14.7071 3.29289C14.8946 3.48043 15 3.73478 15 4V19H19V11H17V9H20C20.2652 9 20.5196 9.10536 20.7071 9.29289C20.8946 9.48043 21 9.73478 21 10V19ZM5 5V19H13V5H5ZM7 11H11V13H7V11ZM7 7H11V9H7V7Z"/></g></g><defs><clipPath id="a"><rect width="24" height="24" fill="white"/></clipPath></defs></svg>

<svg width="24" height="24" fill="none" xmlns="http://www.w3.org/2000/svg"><g clip-path="url(#a)"><path d="M21 19h2v2H1v-2h2V4a1 1 0 0 1 1-1h10a1 1 0 0 1 1 1v15h4v-8h-2V9h3a1 1 0 0 1 1 1v9ZM5 5v14h8V5H5Zm2 6h4v2H7v-2Zm0-4h4v2H7V7Z" /></g><defs><clipPath id="a"><path fill="#fff" d="M0 0h24v24H0z"/></clipPath></defs></svg>
